icons/14x14_star_filled.svg

<svg xmlns="http://www.w3.org/2000/svg" width="14" height="14" viewBox="0 0 14 14">
  <path d="M6.45380855,1.33479301 C6.6388146,0.892826614 7.26295192,0.887104161 7.45603059,1.32560406 L9.0592641,4.9666987 L12.5324776,5.47425864 C12.979091,5.53952472 13.1576488,6.08808268 12.835027,6.40373798 L10.3153133,8.86904227 L10.9380219,12.2765156 C11.0228291,12.7405819 10.5183417,13.0861386 10.1162654,12.8393909 L6.96728863,10.9069154 L3.92939831,12.9085108 C3.53104322,13.1709777 3.01147662,12.8316021 3.09172521,12.3613513 L3.68720181,8.87190252 L1.16456476,6.40373798 C0.8419479,6.08808754 1.02049461,5.53953822 1.46709924,5.47426082 L4.93310053,4.96765718 L6.45380855,1.33479301 Z"/>
</svg>

<svg width="14" height="14" fill="none" xmlns="http://www.w3.org/2000/svg"><path d="M6.454 1.335a.545.545 0 0 1 1.002-.01l1.603 3.642 3.474.507a.545.545 0 0 1 .302.93l-2.52 2.465.623 3.408a.545.545 0 0 1-.822.562l-3.149-1.932-3.038 2.002a.545.545 0 0 1-.837-.548l.595-3.49-2.522-2.467a.545.545 0 0 1 .302-.93l3.466-.506 1.52-3.633Z" fill="#000"/></svg>
